assets/flogisto.svg

<svg width="153" height="61" viewBox="0 0 153 61" fill="none" xmlns="http://www.w3.org/2000/svg">
<g clip-path="url(#clip0_3425_1853)">
<path d="M93.694 0L91.0237 6.44751L86.0374 7.61742L86.0028 3.66572L93.694 0Z" fill="#D12E27"/>
<path d="M23.7735 5.66757L30.0733 0.017334L29.9955 41.4322L32.0004 42.8447L27.6277 47.0044L22.5118 43.2867C23.1599 42.9227 23.5661 42.0821 23.7735 40.8342V5.66757Z" fill="#D12E27"/>
<path fill-rule="evenodd" clip-rule="evenodd" d="M143.678 11.5779L133.144 18.1814L133.161 18.1727L133.187 40.3975C133.052 41.2881 132.61 41.756 131.839 42.1082L140.463 47.5158L150.946 40.7303V19.4639C150.998 17.9041 151.335 16.7775 152.009 16.5782L143.678 11.5779ZM139.353 39.9889L139.435 39.9937L144.724 43.4688L144.672 18.918L139.435 15.6509L139.353 39.9889Z" fill="#D12E27"/>
<path fill-rule="evenodd" clip-rule="evenodd" d="M36.3559 18.2073L46.8902 11.6038L55.2209 16.604C54.5468 16.8034 54.2098 17.9299 54.158 19.4898V40.7562L43.6755 47.5417L35.051 42.1341C35.8225 41.7818 36.2645 41.314 36.399 40.4233L36.3732 18.1986L36.3559 18.2073ZM42.6471 40.0196L42.5657 40.0148L42.6471 15.6768L47.884 18.9439L47.9359 43.4947L42.6471 40.0196Z" fill="#D12E27"/>
<path fill-rule="evenodd" clip-rule="evenodd" d="M105.067 11.6992L111.176 15.9716H111.159C111.712 16.3009 111.894 16.4222 112.386 16.7775C111.436 19.516 109.621 22.4277 107.279 25.4435L107.191 25.5244L113.259 28.8578C112.559 29.5337 112.136 30.201 112.136 30.8769L112.11 41.6748L102.318 46.9264L96.347 43.9886C95.6038 43.668 95.0162 43.304 95.0162 43.304L94.9989 43.2867C95.2927 41.6661 95.8285 39.9676 96.0446 39.4216L96.0937 39.4116L96.0618 39.413C96.8254 37.1106 98.5132 34.9084 100.502 32.3134C100.857 31.8507 101.221 31.3755 101.591 30.885L101.463 30.8771L94.9557 27.0814C95.6297 26.6394 96.0013 26.1021 96.1137 25.4695L96.1915 16.1709C98.905 14.7843 101.86 13.3024 105.067 11.6992ZM104.752 26.4526L104.813 26.4271C106.47 24.083 108.148 21.5052 108.765 20.2526C107.459 19.329 105.96 18.193 104.248 16.8952L104.246 16.8944L104.245 16.8931L104.233 16.8845L104.232 16.8836L104.231 16.8826C103.602 16.4063 102.945 15.9082 102.258 15.3909L102.232 25.2702L104.752 26.4526ZM97.6885 39.3457C99.5263 40.1322 101.311 40.8555 103.009 41.5434C104.087 41.9804 105.13 42.4032 106.129 42.8187L106.104 30.8076L104.237 29.8024C101.281 33.4074 98.8013 36.7525 97.7383 39.3436L97.6885 39.3457Z" fill="#D12E27"/>
<path d="M81.8721 16.0149L86.167 11.7686L91.3521 15.3909C90.7789 15.7815 90.3432 16.523 90.2097 17.7806L90.2892 41.6749L92.2941 43.0875L87.9213 47.2471L82.8054 43.5294C83.4536 43.1654 83.8597 42.3248 84.0671 41.0769V41.0173L84.0584 41.0854L83.8942 17.3926L83.8996 17.3906L81.8721 16.0149Z" fill="#D12E27"/>
<path fill-rule="evenodd" clip-rule="evenodd" d="M70.1106 11.7166L59.5763 18.32L59.5936 18.3114L59.6194 40.5361C59.4849 41.4268 59.0429 41.8946 58.2714 42.2469L65.3878 46.7089C64.8336 47.4724 64.3528 48.0887 63.927 48.6342C62.6909 50.2184 61.9195 51.207 61.1664 53.4778L61.2409 53.4747L61.1405 53.4951C60.9245 54.0411 60.3887 55.7396 60.0948 57.3602L60.1208 57.3688C60.1208 57.3688 60.7084 57.7328 61.4516 58.0535L67.4231 60.9912L77.3611 55.7396L77.387 39.5082C77.387 39.4937 77.3841 39.4819 77.3784 39.4727V19.6026C77.4302 18.0427 77.7672 16.9162 78.4413 16.7168L70.1106 11.7166ZM66.8959 47.6545L66.8982 47.653L71.2001 45.1554L71.2254 56.8922C70.2271 56.4769 69.1846 56.0545 68.1068 55.6178L68.1048 55.6169C66.4018 54.9268 64.6108 54.2011 62.7668 53.4116L62.8429 53.4085C63.6425 51.4594 63.8504 51.2167 65.1623 49.6853C65.5944 49.181 66.1466 48.5364 66.8786 47.6456L66.8802 47.6446L66.8959 47.6545ZM65.7861 40.1276L65.8675 40.1324L71.1563 43.6074L71.1044 19.0567L65.8675 15.7896L65.7861 40.1276Z" fill="#D12E27"/>
<path d="M17.128 5.76278L13.5121 4.22602L13.5359 15.0509L20.8792 15.1136L20.8872 15.1134L17.2576 18.6147L13.5437 18.5849L13.5935 41.2589L15.5984 42.6715L11.2257 46.8312L6.10974 43.1135C6.75787 42.7495 7.16404 41.9089 7.37144 40.661V18.5353L0 18.476L3.6209 14.9663L7.37144 14.9983V5.49435H7.3628L7.46172 5.43728C7.46138 5.43295 7.46266 5.42866 7.46651 5.4248H7.47515L16.4885 0.0432129H23.4538L17.128 5.76278Z" fill="#D12E27"/>
<path d="M117.269 3.72628L123.413 0.181885L123.49 14.5872L130.94 14.5676L127.302 18.0687L123.508 18.0342L123.629 40.7128L125.634 42.1253L121.261 46.285L116.145 42.5673C116.793 42.2033 117.2 41.3627 117.407 40.1148L117.269 3.72628Z" fill="#D12E27"/>
</g>
<defs>
<clipPath id="clip0_3425_1853">
<rect width="152.009" height="60.9912" fill="white"/>
</clipPath>
</defs>
</svg>

<?xml version="1.0" encoding="utf-8"?>
<!-- Generator: Adobe Illustrator 27.3.1, SVG Export Plug-In . SVG Version: 6.00 Build 0)  -->
<svg version="1.1" id="Livello_1" xmlns="http://www.w3.org/2000/svg" xmlns:xlink="http://www.w3.org/1999/xlink" x="0px" y="0px"
	 viewBox="0 0 153 61" style="enable-background:new 0 0 153 61;" xml:space="preserve">
<style type="text/css">
	.st0{clip-path:url(#SVGID_00000137837845351197206090000011517853036718407352_);}
	.st1{fill:#FF0A00;}
	.st2{fill-rule:evenodd;clip-rule:evenodd;fill:#FF0A00;}
</style>
<g>
	<defs>
		<rect id="SVGID_1_" y="0" width="152" height="61"/>
	</defs>
	<clipPath id="SVGID_00000065039633373856769700000001438474781875059094_">
		<use xlink:href="#SVGID_1_"  style="overflow:visible;"/>
	</clipPath>
	<g style="clip-path:url(#SVGID_00000065039633373856769700000001438474781875059094_);">
		<path class="st1" d="M93.7,0L91,6.4l-5,1.2l0-4L93.7,0z"/>
		<path class="st1" d="M23.8,5.7L30.1,0L30,41.4l2,1.4L27.6,47l-5.1-3.7c0.6-0.4,1.1-1.2,1.3-2.5V5.7z"/>
		<path class="st2" d="M143.7,11.6l-10.5,6.6l0,0l0,22.2c-0.1,0.9-0.6,1.4-1.3,1.7l8.6,5.4l10.5-6.8V19.5c0.1-1.6,0.4-2.7,1.1-2.9
			L143.7,11.6z M139.4,40L139.4,40l5.4,3.5l-0.1-24.6l-5.2-3.3L139.4,40z"/>
		<path class="st2" d="M36.4,18.2l10.5-6.6l8.3,5c-0.7,0.2-1,1.3-1.1,2.9v21.3l-10.5,6.8l-8.6-5.4c0.8-0.4,1.2-0.8,1.3-1.7
			L36.4,18.2L36.4,18.2z M42.6,40L42.6,40V15.7l5.2,3.3l0.1,24.6L42.6,40z"/>
		<path class="st2" d="M105.1,11.7l6.1,4.3h0c0.6,0.3,0.7,0.5,1.2,0.8c-1,2.7-2.8,5.7-5.1,8.7l-0.1,0.1l6.1,3.3
			c-0.7,0.7-1.1,1.3-1.1,2l0,10.8l-9.8,5.3l-6-2.9c-0.7-0.3-1.3-0.7-1.3-0.7l0,0c0.3-1.6,0.8-3.3,1-3.9l0,0l0,0
			c0.8-2.3,2.5-4.5,4.4-7.1c0.4-0.5,0.7-0.9,1.1-1.4l-0.1,0L95,27.1c0.7-0.4,1-1,1.2-1.6l0.1-9.3C98.9,14.8,101.9,13.3,105.1,11.7z
			 M104.8,26.5L104.8,26.5c1.7-2.4,3.4-4.9,4-6.2c-1.3-0.9-2.8-2.1-4.5-3.4l0,0l0,0l0,0l0,0l0,0c-0.6-0.5-1.3-1-2-1.5l0,9.9
			L104.8,26.5z M97.7,39.3c1.8,0.8,3.6,1.5,5.3,2.2c1.1,0.4,2.1,0.9,3.1,1.3l0-12l-1.9-1C101.3,33.4,98.8,36.8,97.7,39.3L97.7,39.3z
			"/>
		<path class="st1" d="M81.9,16l4.3-4.2l5.2,3.6c-0.6,0.4-1,1.1-1.1,2.4l0.1,23.9l2,1.4l-4.4,4.2l-5.1-3.7c0.6-0.4,1.1-1.2,1.3-2.5
			V41l0,0.1l-0.2-23.7l0,0L81.9,16z"/>
		<path class="st2" d="M70.1,11.7l-10.5,6.6l0,0l0,22.2c-0.1,0.9-0.6,1.4-1.3,1.7l7.1,4.5c-0.6,0.8-1,1.4-1.5,1.9
			c-1.2,1.6-2,2.6-2.8,4.8l0.1,0l-0.1,0c-0.2,0.5-0.8,2.2-1,3.9l0,0c0,0,0.6,0.4,1.3,0.7l6,2.9l9.9-5.3l0-16.2c0,0,0,0,0,0V19.6
			c0.1-1.6,0.4-2.7,1.1-2.9L70.1,11.7z M66.9,47.7L66.9,47.7l4.3-2.5l0,11.7c-1-0.4-2-0.8-3.1-1.3l0,0c-1.7-0.7-3.5-1.4-5.3-2.2
			l0.1,0c0.8-1.9,1-2.2,2.3-3.7C65.6,49.2,66.1,48.5,66.9,47.7L66.9,47.7L66.9,47.7z M65.8,40.1L65.8,40.1l5.4,3.5l-0.1-24.6
			l-5.2-3.3L65.8,40.1z"/>
		<path class="st1" d="M17.1,5.8l-3.6-1.5l0,10.8l7.3,0.1l0,0l-3.6,3.5l-3.7,0l0,22.7l2,1.4l-4.4,4.2l-5.1-3.7
			c0.6-0.4,1.1-1.2,1.3-2.5V18.5L0,18.5L3.6,15l3.8,0V5.5h0l0.1-0.1c0,0,0,0,0,0h0l9-5.4h7L17.1,5.8z"/>
		<path class="st1" d="M117.3,3.7l6.1-3.5l0.1,14.4l7.5,0l-3.6,3.5l-3.8,0l0.1,22.7l2,1.4l-4.4,4.2l-5.1-3.7
			c0.6-0.4,1.1-1.2,1.3-2.5L117.3,3.7z"/>
	</g>
</g>
</svg>
